assets/images/padlet.svg

<?xml version="1.0" encoding="UTF-8"?>
<svg xmlns="http://www.w3.org/2000/svg" xmlns:xlink="http://www.w3.org/1999/xlink" width="674.51pt" height="208.44pt" viewBox="0 0 674.51 208.44" version="1.1">
<defs>
<clipPath id="clip1">
  <path d="M 98 120 L 151.199219 120 L 151.199219 191.539063 L 98 191.539063 Z M 98 120 "/>
</clipPath>
<clipPath id="clip2">
  <path d="M 46.199219 0.0390625 L 99 0.0390625 L 99 121 L 46.199219 121 Z M 46.199219 0.0390625 "/>
</clipPath>
<clipPath id="clip3">
  <path d="M 46.199219 120 L 99 120 L 99 190 L 46.199219 190 Z M 46.199219 120 "/>
</clipPath>
<clipPath id="clip4">
  <path d="M 265 14 L 674.511719 14 L 674.511719 208.441406 L 265 208.441406 Z M 265 14 "/>
</clipPath>
</defs>
<g id="surface1">
<g clip-path="url(#clip1)" clip-rule="nonzero">
<path style=" stroke:none;fill-rule:nonzero;fill:rgb(100%,100%,100%);fill-opacity:1;" d="M 132.824219 191.488281 L 98.667969 183.894531 L 98.667969 180.058594 L 98.925781 179.96875 L 98.90625 178.976563 L 121.476563 184.089844 C 122.203125 184.253906 122.929688 184.335938 123.648438 184.335938 C 127.96875 184.335938 131.898438 181.457031 133.078125 177.121094 L 148.347656 121.054688 L 148.292969 120.929688 L 151.109375 120.320313 L 132.824219 191.488281 "/>
</g>
<g clip-path="url(#clip2)" clip-rule="nonzero">
<path style=" stroke:none;fill-rule:nonzero;fill:rgb(100%,100%,100%);fill-opacity:1;" d="M 49.105469 120.933594 L 46.574219 120.335938 L 46.601563 120.445313 L 46.21875 120.351563 L 98.664063 0.00390625 L 98.664063 15.078125 C 96.214844 15.09375 93.886719 16.535156 92.855469 18.929688 L 49.105469 120.933594 "/>
</g>
<g clip-path="url(#clip3)" clip-rule="nonzero">
<path style=" stroke:none;fill-rule:nonzero;fill:rgb(100%,100%,100%);fill-opacity:1;" d="M 72.75 189.3125 L 64.15625 186.703125 L 46.601563 120.445313 L 46.574219 120.335938 L 49.105469 120.933594 L 49.054688 121.054688 L 64.324219 177.121094 C 65.503906 181.457031 69.433594 184.335938 73.753906 184.335938 C 74.46875 184.335938 75.199219 184.253906 75.921875 184.089844 L 98.699219 178.929688 L 98.90625 178.976563 L 98.925781 179.96875 L 98.667969 180.058594 L 72.75 189.3125 "/>
</g>
<path style=" stroke:none;fill-rule:nonzero;fill:rgb(100%,100%,100%);fill-opacity:1;" d="M 98.804688 174.152344 L 98.699219 169.285156 L 98.699219 131.640625 L 144.375 121.777344 L 144.800781 121.710938 L 102.246094 135.523438 L 98.804688 174.152344 "/>
<path style=" stroke:none;fill-rule:nonzero;fill:rgb(100%,100%,100%);fill-opacity:1;" d="M 98.699219 175.3125 L 98.699219 169.285156 L 98.804688 174.152344 L 98.699219 175.3125 "/>
<path style=" stroke:none;fill-rule:nonzero;fill:rgb(100%,100%,100%);fill-opacity:1;" d="M 98.699219 169.285156 L 98.667969 167.769531 L 98.667969 131.648438 L 98.699219 131.640625 L 98.699219 169.285156 "/>
<path style=" stroke:none;fill-rule:nonzero;fill:rgb(100%,100%,100%);fill-opacity:1;" d="M 98.664063 132.824219 L 97.921875 132.644531 L 97.917969 132.421875 L 53.109375 121.875 L 52.601563 121.710938 L 95.15625 128.289063 L 98.664063 24.445313 L 98.664063 132.824219 "/>
<path style=" stroke:none;fill-rule:nonzero;fill:rgb(100%,100%,100%);fill-opacity:1;" d="M 98.699219 175.3125 L 95.15625 135.523438 L 53.109375 121.875 L 97.917969 132.421875 L 97.921875 132.644531 L 98.667969 167.769531 L 98.699219 169.285156 L 98.699219 175.3125 "/>
<path style=" stroke:none;fill-rule:nonzero;fill:rgb(96.899414%,74.899292%,13.299561%);fill-opacity:1;" d="M 102.246094 128.289063 L 98.699219 23.390625 L 98.664063 24.445313 L 98.664063 15.078125 C 98.679688 15.078125 98.691406 15.078125 98.703125 15.078125 C 99.539063 15.078125 100.390625 15.242188 101.207031 15.59375 C 102.707031 16.238281 103.902344 17.433594 104.546875 18.929688 L 148.292969 120.929688 L 144.375 121.777344 L 102.246094 128.289063 "/>
<path style=" stroke:none;fill-rule:nonzero;fill:rgb(95.298767%,59.199524%,36.499023%);fill-opacity:1;" d="M 123.648438 184.335938 C 122.929688 184.335938 122.203125 184.253906 121.476563 184.089844 L 98.90625 178.976563 L 98.804688 174.152344 L 102.246094 135.523438 L 144.800781 121.710938 L 144.375 121.777344 L 148.292969 120.929688 L 148.347656 121.054688 L 133.078125 177.121094 C 131.898438 181.457031 127.96875 184.335938 123.648438 184.335938 M 98.699219 169.285156 L 98.699219 131.640625 L 98.699219 169.285156 "/>
<path style=" stroke:none;fill-rule:nonzero;fill:rgb(54.899597%,78.399658%,48.199463%);fill-opacity:1;" d="M 95.15625 128.289063 L 52.601563 121.710938 L 53.109375 121.875 L 49.105469 120.933594 L 92.855469 18.929688 C 93.886719 16.535156 96.214844 15.09375 98.664063 15.078125 L 98.664063 24.445313 L 95.15625 128.289063 "/>
<path style=" stroke:none;fill-rule:nonzero;fill:rgb(59.999084%,49.398804%,72.898865%);fill-opacity:1;" d="M 73.753906 184.335938 C 69.433594 184.335938 65.503906 181.457031 64.324219 177.121094 L 49.054688 121.054688 L 49.105469 120.933594 L 53.109375 121.875 L 95.15625 135.523438 L 98.699219 175.3125 L 98.699219 169.285156 L 98.699219 175.3125 L 98.804688 174.152344 L 98.90625 178.976563 L 98.699219 178.929688 L 75.921875 184.089844 C 75.199219 184.253906 74.46875 184.335938 73.753906 184.335938 "/>
<path style=" stroke:none;fill-rule:nonzero;fill:rgb(0%,69.398499%,90.19928%);fill-opacity:1;" d="M 52.542969 157.226563 L 42.140625 120.355469 L 56.089844 88.574219 L 5.808594 60.746094 C 3.917969 59.703125 1.535156 60.386719 0.488281 62.277344 C -0.171875 63.472656 -0.164063 64.925781 0.515625 66.113281 L 52.542969 157.226563 "/>
<path style=" stroke:none;fill-rule:nonzero;fill:rgb(75.299072%,76.098633%,79.598999%);fill-opacity:1;" d="M 192 96.734375 L 207.757813 104.253906 C 209.222656 104.949219 210.972656 104.328125 211.671875 102.867188 C 212.074219 102.019531 212.050781 101.027344 211.597656 100.199219 L 197.882813 75 L 192 96.734375 "/>
<path style=" stroke:none;fill-rule:nonzero;fill:rgb(93.699646%,38.798523%,55.699158%);fill-opacity:1;" d="M 141.078125 88.605469 L 155.28125 120.925781 L 144.785156 156.929688 L 196.824219 75.050781 L 172.371094 75.050781 L 141.078125 88.605469 "/>
<g clip-path="url(#clip4)" clip-rule="nonzero">
<path style=" stroke:none;fill-rule:nonzero;fill:rgb(25.498962%,32.199097%,37.298584%);fill-opacity:1;" d="M 674.507813 81.414063 L 674.507813 63.050781 L 657.890625 63.046875 L 657.878906 42.328125 L 636.765625 42.328125 L 636.746094 130.796875 C 636.746094 147.871094 650.332031 161.738281 667.042969 161.738281 L 674.507813 161.738281 L 674.507813 141.984375 L 667.058594 141.984375 C 661.992188 141.984375 657.890625 137.789063 657.890625 132.617188 L 657.890625 81.414063 Z M 305.757813 61.6875 C 298.695313 61.6875 292.398438 63.433594 286.980469 66.949219 L 286.980469 63.050781 L 265.847656 63.050781 L 265.847656 208.441406 L 286.980469 208.441406 L 286.980469 157.644531 C 292.386719 160.402344 298.5625 161.738281 305.425781 161.738281 C 315.5625 161.738281 324.027344 158 330.496094 150.503906 C 338.269531 141.433594 341.84375 127.566406 341.84375 110.609375 C 341.84375 94.328125 337.9375 81.363281 329.578125 72.320313 C 323.0625 65.285156 315.058594 61.6875 305.757813 61.6875 Z M 314.546875 137.222656 C 312.132813 140.707031 308.332031 142.691406 302.429688 142.691406 C 295.121094 142.691406 290.191406 140.414063 286.980469 136.265625 L 286.980469 89.605469 C 290.804688 83.949219 296.398438 81.074219 304.257813 81.074219 C 313.460938 81.074219 319.710938 88.734375 319.710938 111.289063 C 319.710938 124.03125 317.742188 132.75 314.546875 137.222656 Z M 596.601563 61.511719 C 576.664063 61.511719 557.867188 71.375 557.890625 96.296875 L 557.914063 128.125 C 557.914063 150.140625 569.089844 161.84375 590.421875 161.84375 C 601.902344 161.84375 610.175781 159.101563 620.246094 153.804688 L 612.675781 135.578125 C 605.566406 140.417969 600.867188 142.8125 591.925781 142.8125 C 583.101563 142.8125 579.050781 138.71875 579.050781 128.808594 L 579.050781 122.5 C 583.40625 123.648438 588.5625 124.175781 594.429688 124.175781 C 603.664063 124.175781 611.722656 121.597656 618.414063 116.277344 C 625.964844 110.363281 629.773438 102.332031 629.773438 92.503906 C 629.773438 71.71875 615.679688 61.511719 596.601563 61.511719 Z M 592.089844 105.652344 C 586.652344 105.652344 582.351563 105.023438 579.050781 103.898438 L 579.074219 93.191406 C 579.09375 84.449219 584.921875 80.203125 594.261719 80.203125 C 604.226563 80.203125 607.808594 84.066406 607.808594 91.480469 C 607.808594 101.011719 603.300781 105.652344 592.089844 105.652344 Z M 387.390625 61.6875 C 375.949219 61.6875 367.691406 64.425781 357.640625 69.703125 L 365.199219 87.890625 C 372.28125 83.0625 376.980469 80.671875 385.890625 80.671875 C 394.695313 80.671875 398.742188 84.753906 398.742188 94.640625 L 398.742188 100.929688 C 394.390625 99.785156 389.246094 99.257813 383.398438 99.257813 C 374.1875 99.257813 366.152344 101.832031 359.480469 107.136719 C 351.945313 113.035156 348.140625 121.046875 348.140625 130.855469 C 348.140625 151.585938 362.199219 161.761719 381.230469 161.761719 C 388.445313 161.761719 394.769531 160.015625 400.070313 156.410156 C 400.671875 157.84375 401.566406 159.007813 402.496094 160.234375 L 419.816406 160.234375 L 419.816406 95.320313 C 419.816406 73.363281 408.667969 61.6875 387.390625 61.6875 Z M 398.742188 136.039063 C 393.871094 140.925781 388.828125 143.121094 383.566406 143.121094 C 373.621094 143.121094 370.054688 139.269531 370.054688 131.871094 C 370.054688 122.367188 374.546875 117.734375 385.722656 117.734375 C 391.148438 117.734375 395.445313 118.359375 398.742188 119.488281 Z M 541.214844 132.617188 L 541.207031 14.984375 L 520.097656 14.984375 L 520.078125 130.796875 C 520.078125 147.871094 533.664063 161.738281 550.378906 161.738281 L 550.386719 141.984375 C 545.324219 141.984375 541.214844 137.789063 541.214844 132.617188 Z M 484.984375 65.777344 C 479.585938 63.027344 473.402344 61.6875 466.546875 61.6875 C 456.402344 61.6875 447.933594 65.429688 441.472656 72.925781 C 433.703125 81.996094 430.125 95.859375 430.125 112.816406 C 430.125 129.097656 434.027344 142.0625 442.390625 151.109375 C 448.898438 158.140625 456.902344 161.738281 466.214844 161.738281 C 473.269531 161.738281 479.5625 159.996094 484.984375 156.480469 L 484.984375 160.378906 L 506.121094 160.378906 L 506.121094 14.984375 L 484.984375 14.984375 Z M 484.984375 133.824219 C 481.160156 139.480469 475.570313 142.351563 467.707031 142.351563 C 458.511719 142.351563 452.257813 134.695313 452.257813 112.136719 C 452.257813 99.394531 454.226563 90.679688 457.417969 86.203125 C 459.835938 82.71875 463.636719 80.730469 469.535156 80.730469 C 476.839844 80.730469 481.777344 83.015625 484.984375 87.160156 L 484.984375 133.824219 "/>
</g>
</g>
</svg>

<?xml version="1.0" encoding="UTF-8"?><svg xmlns="http://www.w3.org/2000/svg" xmlns:xlink="http://www.w3.org/1999/xlink" width="674.51pt" height="208.44pt" viewBox="0 0 674.51 208.44" version="1.1"><defs><clipPath id="clip1"><path d="m98 120h53.2v71.54H98zm0 0"/></clipPath><clipPath id="clip2"><path d="m46.2.04H99V121h-52.8zm0 0"/></clipPath><clipPath id="clip3"><path d="m46.2 120H99v70h-52.8zm0 0"/></clipPath><clipPath id="clip4"><path d="m265 14h409.51v194.44H265zm0 0"/></clipPath></defs><g id="surface1"><g clip-path="url(#clip1)" clip-rule="nonzero"><path style=" stroke:none;fill-rule:nonzero;fill:rgb(100%,100%,100%);fill-opacity:1;" d="m132.82 191.49l-34.15-7.6v-3.83l.26-.09l-.02-.99l22.57 5.11c.72.16 1.45.25 2.17.25c4.32 0 8.25-2.88 9.43-7.22l15.27-56.07l-.06-.12l2.82-.61l-18.29 71.17"/></g><g clip-path="url(#clip2)" clip-rule="nonzero"><path style=" stroke:none;fill-rule:nonzero;fill:rgb(100%,100%,100%);fill-opacity:1;" d="m49.11 120.93l-2.54-.59l.03.11l-.38-.1l52.44-120.35v15.08c-2.45.01-4.77 1.46-5.8 3.85l-43.75 102"/></g><g clip-path="url(#clip3)" clip-rule="nonzero"><path style=" stroke:none;fill-rule:nonzero;fill:rgb(100%,100%,100%);fill-opacity:1;" d="m72.75 189.31l-8.59-2.61l-17.56-66.25l-.03-.11l2.54.59l-.06.12l15.27 56.07c1.18 4.34 5.11 7.22 9.43 7.22c.72 0 1.45-.09 2.17-.25l22.78-5.16l.21.05l.02.99l-.26.09l-25.92 9.25"/></g><path style=" stroke:none;fill-rule:nonzero;fill:rgb(100%,100%,100%);fill-opacity:1;" d="m98.8 174.15l-.1-4.86v-37.65l45.67-9.86l.43-.07l-42.55 13.81l-3.45 38.63"/><path style=" stroke:none;fill-rule:nonzero;fill:rgb(100%,100%,100%);fill-opacity:1;" d="m98.7 175.31v-6.02l.1 4.86l-.1 1.16"/><path style=" stroke:none;fill-rule:nonzero;fill:rgb(100%,100%,100%);fill-opacity:1;" d="m98.7 169.29l-.03-1.52v-36.12l.03-.01v37.65"/><path style=" stroke:none;fill-rule:nonzero;fill:rgb(100%,100%,100%);fill-opacity:1;" d="m98.66 132.82l-.74-.18v-.22l-44.81-10.54l-.51-.17l42.56 6.58l3.5-103.84v108.37"/><path style=" stroke:none;fill-rule:nonzero;fill:rgb(100%,100%,100%);fill-opacity:1;" d="m98.7 175.31l-3.54-39.79l-42.05-13.65l44.81 10.55v.22l.75 35.13l.03 1.52v6.02"/><path style=" stroke:none;fill-rule:nonzero;fill:rgb(96.899414%,74.899292%,13.299561%);fill-opacity:1;" d="m102.25 128.29l-3.55-104.9l-.04 1.06v-9.37h.04c.84 0 1.69.16 2.51.51c1.5.65 2.69 1.84 3.34 3.34l43.74 102l-3.91.85l-42.13 6.51"/><path style=" stroke:none;fill-rule:nonzero;fill:rgb(95.298767%,59.199524%,36.499023%);fill-opacity:1;" d="m123.65 184.34c-.72 0-1.45-.09-2.17-.25l-22.57-5.11l-.11-4.83l3.45-38.63l42.55-13.81l-.43.07l3.92-.85l.06.12l-15.27 56.07c-1.18 4.34-5.11 7.22-9.43 7.22m-24.95-15.05v-37.65v37.65"/><path style=" stroke:none;fill-rule:nonzero;fill:rgb(54.899597%,78.399658%,48.199463%);fill-opacity:1;" d="m95.16 128.29l-42.56-6.58l.51.17l-4-.95l43.75-102c1.03-2.39 3.35-3.84 5.8-3.85v9.37l-3.5 103.84"/><path style=" stroke:none;fill-rule:nonzero;fill:rgb(59.999084%,49.398804%,72.898865%);fill-opacity:1;" d="m73.75 184.34c-4.32 0-8.25-2.88-9.43-7.22l-15.27-56.07l.06-.12l4 .94l42.05 13.65l3.54 39.79v-6.02v6.02l.1-1.16l.11 4.83l-.21-.05l-22.78 5.16c-.72.16-1.45.25-2.17.25"/><path style=" stroke:none;fill-rule:nonzero;fill:rgb(0%,69.398499%,90.19928%);fill-opacity:1;" d="m52.54 157.23l-10.4-36.87l13.95-31.79l-50.28-27.82c-1.89-1.05-4.27-.36-5.32 1.53c-.66 1.19-.65 2.65.03 3.83l52.02 91.12"/><path style=" stroke:none;fill-rule:nonzero;fill:rgb(75.299072%,76.098633%,79.598999%);fill-opacity:1;" d="m192 96.73l15.76 7.52c1.46.7 3.21.08 3.91-1.38c.4-.85.38-1.84-.07-2.67L197.883 75l-5.88 21.73"/><path style=" stroke:none;fill-rule:nonzero;fill:rgb(93.699646%,38.798523%,55.699158%);fill-opacity:1;" d="m141.08 88.61l14.2 32.32l-10.49 36l52.03-81.88h-24.45l-31.29 13.56"/><g clip-path="url(#clip4)" clip-rule="nonzero"><path style=" stroke:none;fill-rule:nonzero;fill:rgb(25.498962%,32.199097%,37.298584%);fill-opacity:1;" d="m674.51 81.41v-18.36h-16.62l-.01-20.72h-21.11l-.02 88.47c0 17.07 13.58 30.94 30.29 30.94h7.47v-19.76h-7.45c-5.07 0-9.17-4.19-9.17-9.36v-51.21zm-368.75-19.72c-7.06 0-13.36 1.74-18.78 5.26v-3.9h-21.13v145.39h21.13v-50.8c5.41 2.76 11.58 4.1 18.45 4.1c10.13 0 18.6-3.74 25.07-11.24c7.77-9.07 11.34-22.93 11.34-39.89c0-16.28-3.9-29.25-12.26-38.29c-6.52-7.03-14.52-10.63-23.82-10.63zm8.79 75.53c-2.42 3.49-6.22 5.47-12.12 5.47c-7.31 0-12.24-2.28-15.45-6.42v-46.66c3.82-5.66 9.42-8.54 17.28-8.54c9.2 0 15.45 7.66 15.45 30.22c0 12.74-1.97 21.46-5.16 25.93zm282.05-75.71c-19.94 0-38.73 9.87-38.71 34.79l.02 31.83c0 22.01 11.18 33.71 32.51 33.71c11.48 0 19.76-2.74 29.83-8.04l-7.57-18.22c-7.11 4.84-11.81 7.23-20.75 7.23c-8.83 0-12.88-4.09-12.88-14v-6.31c4.36 1.15 9.51 1.68 15.38 1.68c9.23 0 17.29-2.58 23.98-7.9c7.55-5.92 11.36-13.95 11.36-23.78c0-20.78-14.09-30.99-33.17-30.99zm-4.51 44.14c-5.44 0-9.74-.63-13.04-1.75l.02-10.71c.02-8.74 5.85-12.99 15.19-12.99c9.97 0 13.55 3.87 13.55 11.28c0 9.53-4.51 14.17-15.72 14.17zm-204.7-43.96c-11.44 0-19.7 2.74-29.75 8.01l7.56 18.19c7.08-4.83 11.78-7.22 20.69-7.22c8.81 0 12.85 4.08 12.85 13.97v6.29c-4.35-1.14-9.49-1.67-15.34-1.67c-9.21 0-17.25 2.57-23.92 7.88c-7.53 5.9-11.34 13.91-11.34 23.72c0 20.73 14.06 30.9 33.09 30.9c7.22 0 13.54-1.74 18.84-5.35c.6 1.43 1.5 2.6 2.43 3.82h17.32v-64.91c0-21.96-11.15-33.63-32.43-33.63zm11.35 74.35c-4.87 4.89-9.91 7.08-15.17 7.08c-9.95 0-13.52-3.85-13.52-11.25c0-9.5 4.5-14.14 15.67-14.14c5.43 0 9.73.63 13.02 1.76zm142.47-3.42v-117.64h-21.11l-.02 115.82c0 17.07 13.58 30.94 30.3 30.94l.01-19.76c-5.07 0-9.18-4.19-9.18-9.36zm-56.23-66.84c-5.39-2.75-11.58-4.09-18.43-4.09c-10.15 0-18.62 3.74-25.08 11.24c-7.77 9.07-11.35 22.93-11.35 39.89c0 16.28 3.91 29.24 12.27 38.29c6.51 7.03 14.51 10.63 23.82 10.63c7.06 0 13.35-1.74 18.77-5.26v3.9h21.14v-145.4h-21.14zm0 68.04c-3.82 5.66-9.41 8.53-17.27 8.53c-9.2 0-15.45-7.65-15.45-30.21c0-12.75 1.97-21.46 5.16-25.94c2.42-3.48 6.22-5.47 12.12-5.47c7.3 0 12.24 2.29 15.44 6.43v46.66"/></g></g></svg>
